X:1
T:Title
%%score { 1 | 2 }
L:1/8
Q:1/4=110
M:4/4
K:Ab
V:1 treble nm="Grand Piano"
V:2 bass 
V:1
 [CA]2 [CE]>[CA] [DB]3 [CA] | [Ec]2 [CA]2 z2 [CEA]2 | G3 A B2 c2 |[M:3/4] B6 |[M:1/4] [Ec]2 | %5
w: W.~H.~Nevins * * * *|||||
[M:4/4] [DB]2 [CA]2 [A,EG]2 [A,DF]2 | [A,CE]2 [A,CA]2 z2 [CEA]2 | B2 A2 c3 B | [CA]4 z4 | %9
w: ||||
 A2 z2 B2 z2 | c2 z2 [Ad]2 z2 | [Ae]3 [Gd] [GB]3 [Gd] | c A3 z4 | A2 z2 B2 z2 | c2 z2 [Ad]2 z2 | %15
w: ||||||
 [Ae]3 [Gd] [GB]3 [Gd] | c A3 z4 |] %17
w: ||
V:2
 [A,,A,]2 [A,,A,]>[A,,A,] [E,G,]3 [E,A,] | [A,,A,]2 [A,,A,]2 z2 A,,2 | %2
 [E,DE]3 [E,CE] [E,G,E]2 [E,A,E]2 |[M:3/4] [E,G,E]6 |[M:1/4] [A,,A,]2 | %5
[M:4/4] [A,,A,]2 [A,,A,]2 D,2 D,2 | A,,2 A,,2 z2 A,,2 | [E,DE]2 [E,CE]2 [E,A,E]3 [E,G,D] | %8
 [A,,A,]4 z4 | [A,CE]2 z2 [E,E]2 z2 | [A,EA]2 z2[K:bass] [F,D]2 z2 | [E,C]3 [E,B,] [E,E]3 [E,E] | %12
 [A,EA] [A,CE]3 z4 | [A,CE]2 z2 [E,E]2 z2 | [A,EA]2 z2[K:bass] [F,D]2 z2 | %15
 [E,C]3 [E,B,] [E,E]3 [E,E] | [A,EA] [A,CE]3 z4 |] %17

